!!!OTL: JETZT REISEN WIR ZUM THOR HINAUS
!!!ARE: Europa, Mitteleuropa, Deutschland, Hessen, Frankfurt
!!!SCT: E0757
!!!YEM: Copyright 1995, estate of Helmut Schaffrath.
**kern
*ICvox
*Ivox
*M6/8
*k[f#]
*G:
{8d
=1
4g
8b
4b
8b
=2
4b
8dd
8dd
8cc
8b
=3
4.a
4r}
{8g
=4
4g
8b
4b
8b
=5
4b
8dd
8dd
8cc}
{8b
=6
4a
8a
4a
8a
=7
8.a
16b
8cc
8ee
8dd}
{8cc
=8
4b
8b
4dd
8dd
=9
4.g
4r}
==
!!!AGN: Abschieds - Lied, Liebe
!!!ONB: ESAC (Essen Associative Code) Database: ERK2
!!!AMT: compound duple
!!!AIN: vox
!!!EED: Helmut Schaffrath
!!!EEV: 1.0
*-
